X:1
T:Bal Limousine
C:Trad. Poitou, fichier abc : Bernard Loffet
L:1/8
Q:460
K:G
M:3/4
|: [d2G,,2] [e2G,2] [d2G,2] | [c2C,,2] [A2G,2] [B2C,2] | [c2=F,,2] [d2=F,2] [c2F,2] | \
 [A2A,,2] [B2A,2] [G2E,2] | [A2=F,,2] [c2=F,2] [B2F,2] | [AD,,]B [AD,]G [FD,]G | [A2=F,,2] [B2=F,2] [c2F,2] | \
 [A2G,,2] [B2G,2] [G2G,2] | [d2G,,2] [e2G,2] [d2G,2] | [c2C,,2] [B2C,2] [A2G,2] | \
 [c2=F,,2] [d2=F,2] [c2F,2] | [A2A,,2] [B2A,2] [G2E,2] | [A2=F,,2] [c2=F,2] [B2F,2] | \
 [AA,,]B [AA,]G [FA,]G | [A2D,,2] [B2D,2] [A2D,2] | [G2G,,2] G,2 G,2 :|: [A2D,,2] [B2D,2] [G2G,2] | \
 [AD,,]B [AD,]G [FD,]G | [A2D,,2] [B2D,2] [G2G,2] | [D2G,,2] [E2G,2] [C2G,2] | [A2D,,2] [c2D,2] [B2D,2] | \
 [AD,,]B [AD,]G [FD,]G | [A2D,,2] [B2D,2] [c2D,2] | [A2D,,2] D,2 D,2 | [A2D,,2] [B2D,2] [G2G,2] | \
 [AD,,]B [AD,]G [FD,]G | [A2D,,2] [B2D,2] [G2G,2] | [D2G,,2] [E2G,2] [C2G,2] | [A2D,,2] [c2D,2] [B2D,2] | \
 [AD,,]B [AD,]G [FD,]G | [c2D,,2] [B2D,2] [A2D,2] | [G2G,,2] G,2 G,2 :| \
W:Created with TablEdit http://www.tabledit.com/ by Bernard Loffet
